!!!!SEGMENT: pl-wumfc--r282--001-004_paderewski-ignacy-jan--exercises-1-exercise-4.krn
!!!cenid: 18xx:3163
!!!COM: Paderewski, Ignacy Jan
!!!COM-rismID:
!!!CDT: 1860/11/18-1941/06/29
!!!CNT: Polish
!!!GTL: [Exercises 1]
!!!OTL: [Exercise] 4
!!!OMV: 004
!!!PDT:
!!!AGN:
!!!SMS-siglum: PL-Wumfc
!!!SMS-shelfmark: R282
!!!SMS-shelfwork: 001-004 G
!!!SMS-variant:
!!!SMS-altvar:
!!!NIFC-rismSourceID: 1001158933
!!!NIFC-islandoraID: pl-wumfc:419
!!!URL-pdf-islandora: https://repozytorium.nifc.pl/islandora/object/pl-wumfc%3A419/datastream/PDF/view
!!!URL-scan: https://polish.musicsources.pl/pl/lokalizacje/galeria/rekopisy/4702 @EN{Scan on Polish Music Herritage in Open Access Website} @PL{Skany w portalu Dziedzictwo Muzyki Polskiej w otwartym dostępie}
!!!ONB-nifc: UWAGA: pierwsza grupa ćwiczeń na skanach 0004-0007
!!!AIN: 1 piano
!!!key: e
**kern	**kern
*part1	*part1
*staff2	*staff1
*>[A,A,B]	*>[A,A,B]
*>A	*>A
*I"[Pianoforte]	*I"[Pianoforte]
*Ipiano	*Ipiano
*ICklav	*ICklav
*clefF4	*clefG2
*k[f#]	*k[f#]
*e:	*e:
!LO:TX:a:i:t=C. f	!LO:TX:t=P:problem=brak oznaczenia metrycznego
2E\	4ee\
.	4dd\
=1	=1
2A\	4cc\
.	4a\
2G\	4b\
.	4cc\
=2	=2
*	*^
*	*	*cue
2F#\	4dd\	4a/
.	4f#/	2.ryy
2E\	4g/	.
.	4a/	.
*	*v	*v
=3	=3
1D#X	4b\
.	4cc\
.	4b\
.	4a/
=4	=4
2E;\	2g;/
2B\	4g/
.	4f#/
=5	=5
2c\	4e/
.	4f#/
2c\	4g/
.	4a/
=6	=6
2B\	4g\
.	4a\
2B\	4b\
.	4dd\
=7	=7
[1A	4cc\
.	4dd\
.	4cc\
.	4b\
=8	=8
2A\]	2b;\
=:|!	=:|!
*>B	*>B
2c\	4ee\
.	4ff#\
=9	=9
2B\	4gg\
.	4ff#\
2G\	4ee\
.	4gg\
=10	=10
2A\	4ff#\
.	4ee\
2B\	4dd\
.	4ff#\
=11	=11
1c	4ee\
.	4ddn\
.	4cc\
.	4dd\
=12	=12
2c;\	2ee;\
2G\	4gg\
.	4b\
!!LO:LB:g=original
=13	=13
2A\	4cc\
.	4dd\
2G\	4ee\
.	4dd\
=14	=14
2A\	4cc\
.	4ee\
2F#\	4dd\
.	4a/
=15	=15
1E	4g/
.	4a/
.	4b\
.	4a/
=16	=16
2E;\	2g;/
2c\	4a/
.	4e/
=17	=17
2B\	4d/
.	4e/
2d\	4f#/
.	4g/
=18	=18
2c\	4a/
.	4c/
!	!LO:N:vis=4.
2B\	4d/
.	4e/
=19	=19
1A	4f#/
.	4g/
.	4f#/
.	4e/
=20	=20
2B;\	2d#X;/
2E\	4g/
.	4b/
=21	=21
2F#\	4a/
.	4f#/
2E\	4g/
.	4a/
=22	=22
2D#X\	4b\
.	4cc\
2D#\	4b\
.	4a\
=23	=23
1E	4g/
.	4a/
.	4g/
.	4f#/
=24	=24
2E\	2e;/
==	==
*-	*-
!!!system-decoration: (s1,s2)
!!!ENC: Anastazja Marusiak
!!!END: 2021-11-10
!!!ENC: Andrzej Kubiczek
!!!END: 2021-11-13
